svg/color/abton.svg

<svg width="40" height="40" viewBox="0 0 40 40" fill="none" xmlns="http://www.w3.org/2000/svg">
<g clip-path="url(#clip0_819_3601)">
<path d="M20 0C31.0457 0 40 8.9543 40 20C40 31.0457 31.0457 40 20 40C8.95431 40 7.90517e-06 31.0457 0 20C6.58765e-07 8.95431 8.95431 1.97595e-06 20 0Z" fill="#CCE9F4"/>
<path d="M26 6C30.4183 6 34 9.58172 34 14V26C34 30.4183 30.4183 34 26 34H14C9.58172 34 6 30.4183 6 26V14C6 9.58172 9.58172 6 14 6H26Z" fill="#008FC7"/>
<g clip-path="url(#clip1_819_3601)">
<path d="M27.3434 12H10.0001V14.6642H26.4776V14.6667C26.5905 14.6664 26.7024 14.6885 26.8068 14.7316C26.9111 14.7747 27.006 14.838 27.0859 14.9178C27.1658 14.9976 27.2291 15.0924 27.2723 15.1967C27.3155 15.3011 27.3377 15.4129 27.3376 15.5258V24.4775L27.3343 24.4833C27.3323 24.7106 27.2406 24.9278 27.0792 25.0878C26.9179 25.2478 26.6998 25.3375 26.4726 25.3375H13.5251C13.0509 25.3375 12.6643 24.9542 12.6643 24.4767V20.86C12.6643 20.385 13.0509 20 13.5251 20H24.6668V17.3358H12.6568C12.3079 17.3355 11.9623 17.404 11.6399 17.5373C11.3175 17.6707 11.0245 17.8663 10.7778 18.1129C10.531 18.3596 10.3353 18.6525 10.2019 18.9749C10.0684 19.2972 9.99987 19.6428 10.0001 19.9917V25.3442C10.0003 26.0486 10.2803 26.7241 10.7785 27.2222C11.2767 27.7202 11.9523 28 12.6568 28H27.3434C27.6923 28.0001 28.0378 27.9315 28.3602 27.798C28.6826 27.6645 28.9755 27.4688 29.2222 27.2221C29.4689 26.9754 29.6646 26.6825 29.7981 26.3601C29.9316 26.0378 30.0002 25.6922 30.0001 25.3433V14.6558C30.0002 14.307 29.9316 13.9615 29.7981 13.6392C29.6646 13.3168 29.4689 13.024 29.2222 12.7773C28.9754 12.5307 28.6825 12.3351 28.3602 12.2017C28.0378 12.0683 27.6923 11.9998 27.3434 12Z" fill="white"/>
</g>
</g>
<defs>
<clipPath id="clip0_819_3601">
<rect width="40" height="40" fill="white"/>
</clipPath>
<clipPath id="clip1_819_3601">
<rect width="20" height="20" fill="white" transform="translate(10 10)"/>
</clipPath>
</defs>
</svg>

<svg xmlns="http://www.w3.org/2000/svg" width="40" height="40" fill="none" viewBox="0 0 40 40"><g clip-path="url(#abton_svg-a)"><path fill="#CCE9F4" d="M20 0c11.046 0 20 8.954 20 20s-8.954 20-20 20S0 31.046 0 20 8.954 0 20 0"/><path fill="#008FC7" d="M26 6a8 8 0 0 1 8 8v12a8 8 0 0 1-8 8H14a8 8 0 0 1-8-8V14a8 8 0 0 1 8-8z"/><g clip-path="url(#abton_svg-b)"><path fill="#fff" d="M27.343 12H10v2.664h16.478v.003a.857.857 0 0 1 .86.859v8.952l-.004.005a.86.86 0 0 1-.861.854H13.525a.86.86 0 0 1-.86-.86V20.86a.86.86 0 0 1 .86-.86h11.142v-2.664h-12.01A2.656 2.656 0 0 0 10 19.992v5.352A2.657 2.657 0 0 0 12.657 28h14.686A2.656 2.656 0 0 0 30 25.343V14.656A2.655 2.655 0 0 0 27.343 12"/></g></g><defs><clipPath id="abton_svg-a"><path fill="#fff" d="M0 0h40v40H0z"/></clipPath><clipPath id="abton_svg-b"><path fill="#fff" d="M10 10h20v20H10z"/></clipPath></defs></svg>
